packages/ui-icons/src/Basic/32/Pre5g_32.svg

<svg viewBox="0 0 40 40" xmlns="http://www.w3.org/2000/svg">
<path d="M5 23.9992H6.62609V21.6274C6.86228 22.1512 7.38009 22.5239 8.09775 22.5239C9.21512 22.5239 10.1145 21.6173 10.1145 19.8043V19.7237C10.1145 17.9207 9.21512 16.9941 8.10683 16.9941C7.38917 16.9941 6.89862 17.4171 6.62609 17.9207V17.1351H5V23.9992ZM7.52544 21.1439C6.93496 21.1439 6.58067 20.6907 6.58067 19.7942V19.7136C6.58067 18.8272 6.93496 18.3538 7.52544 18.3538C8.09775 18.3538 8.46112 18.797 8.46112 19.7237V19.8043C8.46112 20.6705 8.13409 21.1439 7.52544 21.1439Z" />
<path d="M10.8379 22.4031H12.464V19.9051C12.464 19.059 13.009 18.7165 13.9992 18.7468V17.0647C13.2634 17.0546 12.7637 17.397 12.464 18.1827V17.1352H10.8379V22.4031Z" />
<path d="M17.0038 22.5239C18.4391 22.5239 19.2658 21.849 19.4111 20.6604H17.885C17.8214 21.013 17.5943 21.2849 17.0583 21.2849C16.4769 21.2849 16.1135 20.882 16.0681 20.187H19.4111V19.7136C19.4111 17.82 18.2937 16.9941 16.9947 16.9941C15.5594 16.9941 14.4238 18.0617 14.4238 19.7539V19.8345C14.4238 21.5569 15.514 22.5239 17.0038 22.5239ZM16.0863 19.1697C16.168 18.5351 16.5041 18.1826 16.9947 18.1826C17.5216 18.1826 17.8032 18.5351 17.8304 19.1697H16.0863Z" />
<path d="M22.3136 19.6388C22.3136 20.1308 21.9072 20.5297 21.4058 20.5297C20.9044 20.5297 20.498 20.1308 20.498 19.6388C20.498 19.1468 20.9044 18.748 21.4058 18.748C21.9072 18.748 22.3136 19.1468 22.3136 19.6388Z" />
<path d="M25.5989 22.7309C27.1748 22.7309 28.1238 21.8188 28.1238 20.4323C28.1238 19.0185 27.375 18.2158 26.2345 18.2158C25.4596 18.2158 25.0155 18.5533 24.7805 18.909L24.8153 17.4678H27.7233V16.0996H23.5267L23.3961 19.9398H24.4583C24.6673 19.6844 24.9807 19.4746 25.4857 19.4746C26.0255 19.4746 26.3302 19.8212 26.3302 20.4049C26.3302 20.9249 26.0952 21.3262 25.5815 21.3262C25.0068 21.3262 24.8327 21.0252 24.7718 20.5691H23.1523C23.1959 21.7914 23.9446 22.7309 25.5989 22.7309Z" />
<path d="M31.9525 22.7316C33.9637 22.7316 34.9998 21.482 34.9998 19.8219V19.0192H32.0744V20.3236H33.2411C33.2062 20.8435 32.8754 21.3087 32.0047 21.3087C30.9251 21.3087 30.5507 20.4877 30.5507 19.4296V19.3567C30.5507 18.18 31.0818 17.4685 31.9612 17.4685C32.6229 17.4685 32.9973 17.7878 33.0843 18.3989H34.8518C34.7299 16.7023 33.4239 16 31.9525 16C30.0806 16 28.6875 17.3408 28.6875 19.3293V19.4023C28.6875 21.3543 29.8368 22.7316 31.9525 22.7316Z" />
<path d="M31.4 12C33.1 12 34.8 12.7 36 13.9C37.2 15.1 38 16.9 37.9 18.5V21.3C37.9 23 37.2 24.7 36 25.9C34.8 27.1 33.1 27.9 31.4 27.9L8.6 28C6.9 28 5.2 27.3 4 26C2.7 24.8 2 23.1 2 21.4V18.6C2 16.9 2.7 15.2 4 14C5.2 12.7 6.9 12 8.6 12H31.4ZM31.4 10H8.6C6.3 10 4.1 10.9 2.5 12.5C0.9 14.1 0 16.3 0 18.6V21.4C0 23.7 0.9 25.9 2.5 27.5C4.1 29.1 6.3 30 8.6 30H31.4C33.7 30 35.9 29.1 37.5 27.5C39.1 25.9 40 23.7 40 21.4V18.6C40 16.3 39.1 14.1 37.5 12.5C35.9 10.9 33.7 10 31.4 10Z" />
</svg>

<svg viewBox="0 0 40 40" xmlns="http://www.w3.org/2000/svg"><path d="M5 24h1.626v-2.373c.236.524.754.897 1.472.897 1.117 0 2.016-.907 2.016-2.72v-.08c0-1.803-.899-2.73-2.007-2.73-.718 0-1.208.423-1.48.927v-.786H5V24Zm2.525-2.856c-.59 0-.944-.453-.944-1.35v-.08c0-.887.354-1.36.944-1.36.573 0 .936.443.936 1.37v.08c0 .867-.327 1.34-.936 1.34ZM10.838 22.403h1.626v-2.498c0-.846.545-1.189 1.535-1.158v-1.682c-.736-.01-1.235.332-1.535 1.118v-1.048h-1.626v5.268ZM17.004 22.524c1.435 0 2.262-.675 2.407-1.864h-1.526c-.064.353-.29.625-.827.625-.581 0-.945-.403-.99-1.098h3.343v-.473c0-1.894-1.117-2.72-2.416-2.72-1.436 0-2.571 1.068-2.571 2.76v.08c0 1.723 1.09 2.69 2.58 2.69Zm-.918-3.354c.082-.635.418-.987.909-.987.527 0 .808.352.835.987h-1.744ZM22.314 19.639a.9.9 0 0 1-.908.89.9.9 0 0 1-.908-.89.9.9 0 0 1 .908-.891.9.9 0 0 1 .908.89ZM25.599 22.73c1.576 0 2.525-.911 2.525-2.298 0-1.413-.749-2.216-1.89-2.216-.774 0-1.219.337-1.454.693l.035-1.441h2.908V16.1h-4.196l-.13 3.84h1.061c.21-.256.523-.465 1.028-.465.54 0 .844.346.844.93 0 .52-.235.921-.748.921-.575 0-.75-.3-.81-.757h-1.62c.044 1.222.793 2.162 2.447 2.162ZM31.953 22.732c2.01 0 3.047-1.25 3.047-2.91v-.803h-2.926v1.305h1.167c-.035.52-.366.985-1.236.985-1.08 0-1.454-.821-1.454-1.88v-.072c0-1.177.53-1.889 1.41-1.889.662 0 1.036.32 1.123.93h1.768C34.73 16.703 33.424 16 31.952 16c-1.871 0-3.265 1.34-3.265 3.33v.072c0 1.952 1.15 3.33 3.265 3.33Z"/><path d="M31.4 12c1.7 0 3.4.7 4.6 1.9 1.2 1.2 2 3 1.9 4.6v2.8c0 1.7-.7 3.4-1.9 4.6-1.2 1.2-2.9 2-4.6 2L8.6 28c-1.7 0-3.4-.7-4.6-2-1.3-1.2-2-2.9-2-4.6v-2.8c0-1.7.7-3.4 2-4.6 1.2-1.3 2.9-2 4.6-2h22.8Zm0-2H8.6c-2.3 0-4.5.9-6.1 2.5C.9 14.1 0 16.3 0 18.6v2.8c0 2.3.9 4.5 2.5 6.1C4.1 29.1 6.3 30 8.6 30h22.8c2.3 0 4.5-.9 6.1-2.5 1.6-1.6 2.5-3.8 2.5-6.1v-2.8c0-2.3-.9-4.5-2.5-6.1-1.6-1.6-3.8-2.5-6.1-2.5Z"/></svg>
